X:2185
T:British swing (N. Pignol)
C:Trad Mag No 42
M:2/4
L:1/16
K:C
A,2+A,E++A,-D-+ +A,D++A,-E-++A,E+C-|C3A,- A,B,CE-|\
E2FE DC2B,-|B,3A, G,A,B,C|\
A,2+A,E++A,-F-+ +A,F++A,-E-++A,E+C-|C3A,- A,B,CE|
DCB,A,- A,B,CD|1 +B,8E8+:|2  +B,4-E4-+ +B,3E3+ +E-G-+\
|:+E2G2+E+E-c-+ +Ec++E-G-++EG+E|\
+E3B3+G- GEGB|z2EA Bcde-|edcB- BA2G-|
+E2G2+E+E-c-+ +Ec++E-G-++EG+E|\
+E3B3+G- GEGB|1 z2AE DE-ED-|\
DCA,B, CDB,2:|2 AEDE- ED-DC|A,B,CD +B,4E4+||


